assets/Mate/Flat/mate_flat.svg

<svg width="32" height="32" viewBox="0 0 32 32" fill="none" xmlns="http://www.w3.org/2000/svg">
<path d="M16 24C20.4183 24 24 20.4183 24 16C24 12.8624 22.1937 10.1467 19.5643 8.83594L19.1598 8L18.2326 8.31567C17.524 8.11016 16.7749 8 16 8C11.5817 8 8 11.5817 8 16C8 20.4183 11.5817 24 16 24Z" fill="#86D72F"/>
<path d="M6.5 13C6.5 13 6.5 12.5 6 12L6.19425 11.8457H25.7529L26 12C25.5 12.5 25.5 13 25.5 13C25.5 14 27 15.5 27 19C27 25.5 22 30 16 30C10 30 5 25.5 5 19C5 15.5 6.5 14 6.5 13Z" fill="#8C5543"/>
<path d="M21.4 2.03324L23.31 3.13324C23.45 3.21324 23.48 3.40324 23.36 3.53324L21.46 5.55324L21.2157 5.97344L21.25 5.99324L19.5991 8.85339C19.1502 8.62686 18.677 8.44139 18.1845 8.30191L19.95 5.24324L19.9855 5.26373L20.23 4.84324L21.03 2.18324C21.08 2.02324 21.26 1.95324 21.4 2.03324Z" fill="#D3D3D3"/>
<path d="M6 10C5.44772 10 5 10.4477 5 11C5 11.5523 5.44772 12 6 12H26C26.5523 12 27 11.5523 27 11C27 10.4477 26.5523 10 26 10H6Z" fill="#D3D3D3"/>
<path d="M21.01 6.44324L19.68 5.67324C19.44 5.53324 19.36 5.22324 19.5 4.98324C19.64 4.74324 19.95 4.66324 20.19 4.80324L21.52 5.57324C21.76 5.71324 21.84 6.02324 21.7 6.26324C21.56 6.49324 21.25 6.58324 21.01 6.44324Z" fill="#F9C23C"/>
</svg>

<svg xmlns="http://www.w3.org/2000/svg" width="32" height="32" fill="none"><path fill="#86D72F" d="M16 24a8 8 0 0 0 3.564-15.164L19.16 8l-.927.316A8 8 0 1 0 16 24Z"/><path fill="#8C5543" d="M6.5 13s0-.5-.5-1l.194-.154h19.559L26 12c-.5.5-.5 1-.5 1 0 1 1.5 2.5 1.5 6 0 6.5-5 11-11 11S5 25.5 5 19c0-3.5 1.5-5 1.5-6Z"/><path fill="#D3D3D3" d="m21.4 2.033 1.91 1.1c.14.08.17.27.05.4l-1.9 2.02-.244.42.034.02-1.65 2.86a7.945 7.945 0 0 0-1.416-.551l1.766-3.059.035.02.245-.42.8-2.66c.05-.16.23-.23.37-.15ZM6 10a1 1 0 1 0 0 2h20a1 1 0 1 0 0-2H6Z"/><path fill="#F9C23C" d="m21.01 6.443-1.33-.77a.505.505 0 0 1 .51-.87l1.33.77c.24.14.32.45.18.69-.14.23-.45.32-.69.18Z"/></svg>
